packages/hms_room_kit/lib/src/assets/icons/pencil.svg

<svg width="21" height="20" viewBox="0 0 21 20" fill="none" xmlns="http://www.w3.org/2000/svg">
<g id="Pencil,Board">
<g id="Vector">
<path fill-rule="evenodd" clip-rule="evenodd" d="M16.1231 2.1665C15.5844 2.1665 15.0678 2.38051 14.6868 2.76145L8.6412 8.80707L8.63993 8.80833L8.63867 8.80959L7.65371 9.79455C7.61536 9.83145 7.58145 9.87352 7.55319 9.92012C7.52358 9.96879 7.50122 10.0206 7.48612 10.0741L6.61899 12.922C6.55174 13.1428 6.61171 13.3827 6.77494 13.546C6.93818 13.7092 7.1781 13.7692 7.39893 13.7019L10.2474 12.8346C10.2978 12.8203 10.3467 12.7996 10.3929 12.7724C10.4429 12.7431 10.4878 12.7074 10.5268 12.6667L17.5595 5.63408C17.9404 5.25314 18.1544 4.73649 18.1544 4.19776C18.1544 3.65904 17.9404 3.14238 17.5595 2.76145C17.1785 2.38051 16.6619 2.1665 16.1231 2.1665ZM8.63991 10.5761L9.08188 10.1342L10.1867 11.239L9.74476 11.681L8.15622 12.1647L8.63991 10.5761ZM9.96576 9.25027L11.0706 10.3551L16.6756 4.7502C16.8221 4.60368 16.9044 4.40497 16.9044 4.19776C16.9044 3.99056 16.8221 3.79184 16.6756 3.64533C16.5291 3.49881 16.3303 3.4165 16.1231 3.4165C15.9159 3.4165 15.7172 3.49881 15.5707 3.64533L9.96576 9.25027Z" fill="#EFF0FA"/>
<path d="M4.875 13.4165C4.33628 13.4165 3.81962 13.6305 3.43869 14.0114C3.05776 14.3924 2.84375 14.909 2.84375 15.4478C2.84375 15.9865 3.05776 16.5031 3.43869 16.8841C3.81962 17.265 4.33628 17.479 4.875 17.479H14.7188C15.0639 17.479 15.3438 17.1992 15.3438 16.854C15.3438 16.5088 15.0639 16.229 14.7188 16.229H4.875C4.6678 16.229 4.46909 16.1467 4.32257 16.0002C4.17606 15.8537 4.09375 15.655 4.09375 15.4478C4.09375 15.2406 4.17606 15.0418 4.32257 14.8953C4.46909 14.7488 4.6678 14.6665 4.875 14.6665H5.34188C5.68705 14.6665 5.96688 14.3867 5.96688 14.0415C5.96688 13.6963 5.68705 13.4165 5.34188 13.4165H4.875Z" fill="#EFF0FA"/>
</g>
</g>
</svg>

<svg xmlns="http://www.w3.org/2000/svg" width="21" height="20" fill="none" viewBox="0 0 21 20"><g fill="#EFF0FA"><path fill-rule="evenodd" d="M16.123 2.167c-.539 0-1.055.214-1.436.594L8.64 8.807l-.001.001-.001.002-.985.985a.621.621 0 0 0-.168.28l-.867 2.847a.625.625 0 0 0 .78.78l2.848-.867a.62.62 0 0 0 .28-.168l7.033-7.033a2.031 2.031 0 0 0-1.437-3.468Zm-7.483 8.41.442-.443 1.105 1.105-.442.442-1.589.484.484-1.589ZM9.966 9.25l1.105 1.105 5.605-5.605a.781.781 0 0 0-1.105-1.105L9.966 9.25Z" clip-rule="evenodd"/><path d="M4.875 13.416a2.031 2.031 0 0 0 0 4.063h9.844a.625.625 0 0 0 0-1.25H4.875a.781.781 0 1 1 0-1.563h.467a.625.625 0 1 0 0-1.25h-.467Z"/></g></svg>
